lib/components/Logo/assets/LogoDom.svg

<svg width="175" height="43" viewBox="0 0 175 43" fill="none" xmlns="http://www.w3.org/2000/svg">
<path d="M8.10769 32.0685C7.29645 32.0768 6.48677 31.9959 5.69325 31.8271C5.04305 31.6889 4.40991 31.48 3.80516 31.2041C3.28515 30.9732 2.79802 30.6745 2.35649 30.3156C1.98271 30.01 1.64275 29.6651 1.34243 29.2871C0.689656 28.4665 0.23075 27.5091 0 26.4863H5.71739C5.80729 26.7886 5.95488 27.0707 6.15199 27.3169C6.35173 27.5481 6.59445 27.7383 6.86667 27.877C7.25362 28.0608 7.67971 28.1471 8.10769 28.1281C8.56933 28.1692 9.03284 28.0734 9.44046 27.8529C9.54746 27.7915 9.63777 27.7049 9.70344 27.6005C9.76911 27.4961 9.80815 27.3771 9.81711 27.2541C9.81291 27.125 9.77331 26.9995 9.70263 26.8913C9.63194 26.7832 9.5329 26.6965 9.41631 26.6408C9.08424 26.4493 8.72878 26.3016 8.35879 26.2014C7.91936 26.071 7.39301 25.9406 6.85701 25.8054C6.321 25.6702 5.72705 25.5254 5.15241 25.3563C4.56984 25.1894 3.99881 24.9846 3.44299 24.7431C2.90014 24.5166 2.39401 24.2107 1.94121 23.8352C1.50307 23.4739 1.14323 23.027 0.883686 22.5218C0.605399 21.9494 0.469555 21.3182 0.487718 20.682C0.498729 20.0633 0.664758 19.4573 0.970606 18.9195C1.31316 18.3085 1.7884 17.7821 2.36132 17.379C3.05148 16.8868 3.82069 16.5161 4.63572 16.2829C5.66014 15.9876 6.72304 15.8476 7.78898 15.8676C8.53345 15.8604 9.27654 15.9332 10.0054 16.0849C10.6099 16.2107 11.198 16.4051 11.7583 16.6644C12.2317 16.8852 12.6748 17.1659 13.0766 17.4998C14.1803 18.4023 14.96 19.6397 15.2979 21.0248H9.59015C9.54329 20.8015 9.44025 20.5937 9.29076 20.4212C9.14871 20.2433 8.97108 20.0969 8.76924 19.9915C8.49245 19.8588 8.18743 19.7958 7.88073 19.808C7.4834 19.7746 7.08479 19.855 6.73146 20.0398C6.63568 20.0938 6.55527 20.1714 6.49782 20.2652C6.44036 20.359 6.40776 20.4659 6.40309 20.5758C6.40309 20.8365 6.63488 21.0587 7.09845 21.1745C7.56202 21.2904 8.13666 21.4594 8.82719 21.6043C9.51772 21.7492 10.2759 21.923 11.0678 22.1307C11.8494 22.3236 12.6026 22.6174 13.3084 23.0047C13.982 23.3703 14.5711 23.8738 15.0371 24.4823C15.5237 25.1599 15.7685 25.9813 15.7325 26.8147C15.7324 27.5038 15.5668 28.1828 15.2496 28.7945C14.9002 29.4558 14.4048 30.0288 13.8009 30.4701C13.0716 30.9972 12.2539 31.3897 11.3865 31.6291C10.3135 31.9389 9.20025 32.087 8.08354 32.0685" fill="white"/>
<path d="M20.4828 21.0295H15.707V16.3069H30.9518V21.0295H26.176V31.6337H20.4828V21.0295Z" fill="white"/>
<path d="M50.4609 16.3069H56.8302L61.0845 23.5309V16.3069H66.7294V31.6337H60.3601L56.1107 24.4049V31.6337H50.4609V16.3069Z" fill="white"/>
<path d="M68.6914 16.3069H82.0626V20.6867H74.3798V22.1064H82.0626V25.8294H74.3798V27.254H82.0626V31.6337H68.6914V16.3069Z" fill="white"/>
<path d="M40.1357 27.2245C39.5003 27.198 38.8867 26.9854 38.3712 26.6131C37.8556 26.2408 37.4608 25.7252 37.2358 25.1304C37.0108 24.5356 36.9655 23.8878 37.1056 23.2675C37.2457 22.6472 37.5649 22.0818 38.0236 21.6414C38.4824 21.201 39.0604 20.905 39.6859 20.7904C40.3114 20.6758 40.9568 20.7475 41.542 20.9965C42.1271 21.2456 42.6261 21.6611 42.977 22.1915C43.328 22.7218 43.5154 23.3435 43.5159 23.9794C43.5071 24.4145 43.4127 24.8435 43.2381 25.2421C43.0634 25.6406 42.812 26.0009 42.4981 26.3022C42.1842 26.6036 41.814 26.8401 41.4086 26.9984C41.0033 27.1566 40.5707 27.2334 40.1357 27.2245ZM48.5959 20.802C48.1774 19.8253 47.557 18.9482 46.7754 18.2283C45.9418 17.472 44.9693 16.8849 43.9119 16.4995C41.4636 15.6551 38.803 15.6551 36.3547 16.4995C35.2955 16.8844 34.3214 17.4715 33.4863 18.2283C32.7168 18.9523 32.1066 19.8289 31.6948 20.802C31.2749 21.8037 31.0586 22.8789 31.0586 23.965C31.0586 25.0511 31.2749 26.1263 31.6948 27.1279C32.1139 28.1029 32.7343 28.9783 33.5153 29.6968C34.3485 30.4572 35.3231 31.0462 36.3837 31.4304C38.832 32.2748 41.4926 32.2748 43.9409 31.4304C44.9994 31.0451 45.9723 30.4562 46.8044 29.6968C47.5764 28.9767 48.187 28.1012 48.5959 27.1279C49.0165 26.1256 49.2331 25.0495 49.2331 23.9625C49.2331 22.8756 49.0165 21.7995 48.5959 20.7972" fill="white"/>
<path d="M91.7391 30.1463C92.3081 30.0776 92.8579 29.8971 93.3568 29.6151C94.3467 29.0018 95.3318 28.3837 96.23 27.7656L105.125 21.971C106.293 21.1791 106.293 21.0921 105.395 20.0394C105.303 19.9525 105.212 19.7787 105.125 19.6869C104.81 19.2433 104.358 18.9164 103.838 18.7574C103.318 18.5983 102.76 18.6162 102.252 18.8081C100.334 19.3212 98.555 20.253 97.0412 21.5364C94.9545 23.3025 93.1914 25.4186 91.8309 27.7898C91.4599 28.3769 91.2149 29.0346 91.1114 29.7213C91.0196 30.0738 91.1983 30.2525 91.7391 30.1656M107.192 20.2133C107.462 20.1264 107.549 19.8608 107.641 19.7738C108.988 17.3932 110.514 15.1912 112.04 12.9893C114.198 9.72978 116.444 6.56203 118.689 3.30254C119.655 1.80559 120.756 0.405216 121.654 -1.10139C123.272 -3.4772 125.068 -5.85785 126.773 -8.23366C128.39 -10.7012 130.278 -12.9901 132.084 -15.3659C132.891 -16.5104 133.61 -17.7465 134.499 -18.8041C135.069 -19.5327 135.733 -20.1823 136.474 -20.7356C137.015 -21.0881 137.44 -21.0881 137.734 -20.7356C138.092 -20.3831 138 -20.0306 137.734 -19.5912C137.436 -19.0719 137.105 -18.572 136.744 -18.0942C135.576 -16.7711 134.591 -15.3611 133.509 -13.951L132.432 -12.6328C129.738 -9.19943 127.222 -5.76127 124.706 -2.24102C122.823 0.400379 120.935 3.04178 119.046 5.77493C116.714 8.85575 114.647 12.1152 112.402 15.283C110.784 17.485 109.345 19.7787 107.911 21.9758L101.151 32.5462C99.3543 35.5401 97.3793 38.4471 95.4912 41.3541C95.2964 41.7827 95.0229 42.171 94.6847 42.4985C94.6336 42.5662 94.5689 42.6225 94.4949 42.6639C94.4209 42.7052 94.3391 42.7308 94.2547 42.739C94.1703 42.7472 94.0851 42.7377 94.0045 42.7113C93.924 42.6849 93.8497 42.642 93.7866 42.5855C93.5161 42.4116 93.6079 42.0591 93.6948 41.7935C94.2356 41.0885 94.7765 40.3835 95.2256 39.6785C96.6742 37.3027 98.1229 34.8496 99.6247 32.4593C101.513 29.4654 103.396 26.3798 105.192 23.3858C105.479 23.0989 105.668 22.7289 105.733 22.3283C104.565 23.1251 103.488 23.917 102.411 24.709C100.074 26.3797 97.8283 28.0554 95.4912 29.7262C94.7193 30.2505 93.9127 30.7216 93.0767 31.1362C92.6576 31.3623 92.2013 31.5111 91.7295 31.5756C90.0249 31.8412 88.7645 30.7837 88.8563 29.1129C88.9494 28.3025 89.1291 27.5044 89.3923 26.7323C90.5022 24.001 92.3393 21.6262 94.704 19.8656C96.2044 18.6399 97.9072 17.6856 99.7357 17.0455C100.778 16.7121 101.877 16.5922 102.966 16.693C103.552 16.6966 104.129 16.8432 104.646 17.1201C105.162 17.3969 105.604 17.7957 105.931 18.2817C106.38 18.895 106.742 19.5131 107.192 20.2133Z" fill="#DF6D3F"/>
<path d="M123.9 21.5116C123.721 21.3377 123.9 21.1591 123.987 20.8983C124.349 19.7539 123.808 19.0488 122.64 18.8702C121.801 18.8171 120.964 19.0012 120.225 19.4013C118.034 20.4658 116.126 22.0346 114.658 23.9791C113.76 25.2974 112.948 26.7074 112.861 28.2961C112.861 28.47 112.77 28.6438 112.77 28.8225C112.861 30.1456 113.31 30.585 114.658 30.585C115.499 30.5673 116.326 30.3558 117.072 29.9669C118.777 29.175 120.394 28.2044 121.293 26.4467C121.384 26.268 121.563 26.0942 121.563 25.9155C121.833 25.3892 121.655 25.1236 121.027 25.0367H119.578C119.33 25.0208 119.086 24.9603 118.859 24.858C118.323 24.5972 118.231 24.153 118.767 23.8004C119.221 23.4675 119.765 23.2808 120.328 23.2653C120.89 23.2498 121.444 23.4061 121.915 23.7135C122.298 24.0153 122.776 24.1711 123.263 24.153C127.754 24.066 132.153 24.066 136.557 23.8922C137.812 23.8922 138.971 23.8004 140.241 23.8004C140.507 23.8004 140.956 23.7135 140.956 24.153C141.047 24.5055 140.507 24.5055 140.241 24.5055C139.825 24.5784 139.403 24.6091 138.981 24.5972L130.211 24.858C128.058 24.9497 125.899 25.1236 123.654 25.0367C123.43 25.0064 123.203 25.0625 123.02 25.1934C122.836 25.3244 122.709 25.5204 122.664 25.7417C122.434 26.692 121.971 27.57 121.317 28.2961C120.172 29.5416 118.8 30.5577 117.275 31.29C115.826 31.9033 114.223 32.2558 112.605 31.7295C112.046 31.5924 111.535 31.3076 111.123 30.9049C110.712 30.5023 110.417 29.9965 110.268 29.4406C109.64 27.1517 110.181 25.0366 111.529 23.1003C112.401 21.7735 113.53 20.6355 114.851 19.7539C116.647 18.6094 118.444 17.7257 120.602 17.4601C121.221 17.3591 121.854 17.3931 122.458 17.5598C123.062 17.7265 123.624 18.022 124.103 18.4259C124.316 18.6222 124.485 18.8604 124.602 19.1255C124.718 19.3906 124.778 19.6769 124.778 19.9663C124.778 20.2558 124.718 20.5421 124.602 20.8072C124.485 21.0723 124.316 21.3105 124.103 21.5067C124.103 21.5936 124.011 21.5067 123.924 21.5067" fill="#DF6D3F"/>
<path d="M157.675 20.8996C156.473 21.1528 155.321 21.5979 154.261 22.2179C150.33 24.2502 146.727 26.8629 143.575 29.9683C142.855 30.6733 142.493 30.852 142.126 30.5864C141.406 30.0552 141.856 29.5288 142.034 29.0025C142.814 27.2834 143.684 25.607 144.642 23.9805C145.615 22.455 146.484 20.8659 147.245 19.224C147.423 18.9584 147.694 18.6107 147.423 18.2582C147.158 17.9926 146.795 18.3451 146.457 18.4321C144.711 19.148 143.053 20.0635 141.518 21.1604C136.061 24.6065 131.104 28.7855 126.785 33.5803C126.495 33.8423 126.279 34.1751 126.157 34.546C126.078 34.6841 125.956 34.7927 125.809 34.8554C125.663 34.9182 125.5 34.9316 125.346 34.8937C125.185 34.8423 125.049 34.7323 124.966 34.5855C124.883 34.4388 124.858 34.2661 124.896 34.1018C125.082 33.4389 125.322 32.7927 125.616 32.1702C127.065 29.5288 128.673 26.9744 130.286 24.333C131.546 22.3048 132.801 20.2815 134.24 18.3452C134.776 17.6401 135.317 17.022 135.858 16.317C136.097 16.0357 136.407 15.8239 136.756 15.7038C136.965 15.6513 137.183 15.6564 137.389 15.7184C137.595 15.7805 137.78 15.8973 137.925 16.0563C138.063 16.1895 138.155 16.3637 138.188 16.5532C138.22 16.7427 138.19 16.9375 138.103 17.109C137.857 17.6105 137.556 18.0834 137.205 18.519C135.588 20.721 133.878 22.9229 132.265 25.1249C131.644 25.941 131.073 26.794 130.556 27.6794C130.972 27.4642 131.339 27.1649 131.633 26.8005C135.388 23.2672 139.48 20.1102 143.85 17.3745C144.948 16.6256 146.162 16.0612 147.443 15.7038C148.128 15.4921 148.869 15.5544 149.509 15.8776C150.006 16.087 150.409 16.4717 150.642 16.9586C150.874 17.4455 150.92 18.0008 150.77 18.519C150.567 19.4178 150.168 20.2606 149.601 20.9865C148.703 22.2179 147.713 23.541 146.815 24.8497C146.636 25.1152 146.457 25.4677 146.187 25.8154C146.306 25.8382 146.429 25.8252 146.541 25.7779C146.653 25.7306 146.748 25.6512 146.815 25.5498C149.392 23.3815 152.193 21.4925 155.169 19.9145C155.796 19.6489 156.429 19.3882 156.965 19.2095C157.332 19.0405 157.73 18.9501 158.134 18.9439C159.751 18.857 160.65 20.0015 160.379 21.4984C160.107 22.497 159.684 23.448 159.124 24.3185C158.675 25.1973 158.225 26.081 157.776 26.873C157.685 27.1385 157.598 27.3993 157.506 27.7518C157.235 28.7176 157.598 29.2488 158.675 29.2488C159.495 29.304 160.318 29.1838 161.089 28.8963C165.401 27.4862 169.622 25.8154 173.847 23.966C174.094 23.8686 174.334 23.7507 174.562 23.6135C174.653 23.6135 174.832 23.5265 174.924 23.7004C175.102 23.879 174.924 24.0529 174.832 24.1398C174.377 24.4292 173.891 24.6657 173.383 24.8448C169.363 26.7609 165.22 28.4095 160.983 29.7799C160.098 30.1319 159.154 30.3105 158.201 30.3063C157.521 30.3214 156.861 30.0733 156.359 29.6135C155.857 29.1538 155.551 28.518 155.507 27.8387C155.441 27.0864 155.563 26.3295 155.864 25.6368C156.182 24.473 156.634 23.35 157.211 22.2904C157.504 21.8803 157.661 21.3889 157.66 20.8851" fill="#DF6D3F"/>
</svg>

<svg xmlns="http://www.w3.org/2000/svg" width="175" height="43" fill="none" viewBox="0 0 175 43"><path fill="#fff" d="M8.108 32.069a11 11 0 0 1-2.415-.242 9 9 0 0 1-1.888-.623 6.4 6.4 0 0 1-1.449-.888 6.8 6.8 0 0 1-1.014-1.029A6.96 6.96 0 0 1 0 26.487h5.717c.09.302.238.584.435.83.2.231.442.421.715.56.387.184.813.27 1.24.251.462.041.926-.055 1.333-.275a.75.75 0 0 0 .377-.599.7.7 0 0 0-.4-.613 4.4 4.4 0 0 0-1.058-.44c-.44-.13-.966-.26-1.502-.396-.536-.135-1.13-.28-1.705-.449a14 14 0 0 1-1.709-.613 6 6 0 0 1-1.502-.908 4.2 4.2 0 0 1-1.057-1.313 3.95 3.95 0 0 1-.396-1.84A3.7 3.7 0 0 1 .97 18.92a4.7 4.7 0 0 1 1.39-1.541 7.4 7.4 0 0 1 2.275-1.096 10.7 10.7 0 0 1 3.153-.415c.744-.008 1.488.065 2.216.217.605.126 1.193.32 1.753.58.474.22.917.5 1.319.835a6.56 6.56 0 0 1 2.22 3.525H9.59a1.34 1.34 0 0 0-.3-.604 1.6 1.6 0 0 0-.52-.43 1.9 1.9 0 0 0-.89-.183 2.1 2.1 0 0 0-1.149.232.65.65 0 0 0-.328.536c0 .26.232.483.695.598.464.116 1.039.285 1.73.43.69.145 1.448.319 2.24.527a9.3 9.3 0 0 1 2.24.874c.674.365 1.263.869 1.73 1.477.486.678.73 1.5.694 2.333 0 .689-.165 1.368-.482 1.98a4.9 4.9 0 0 1-1.45 1.675c-.728.527-1.546.92-2.414 1.16-1.072.309-2.186.457-3.302.439M20.483 21.03h-4.776v-4.723h15.245v4.723h-4.776v10.604h-5.693zM50.46 16.307h6.37l4.255 7.224v-7.224h5.644v15.327H60.36l-4.25-7.23v7.23h-5.65zM68.691 16.307h13.372v4.38H74.38v1.42h7.683v3.722H74.38v1.425h7.683v4.38H68.69zM40.136 27.225a3.245 3.245 0 1 1 3.38-3.246 3.314 3.314 0 0 1-3.38 3.246m8.46-6.423a7.5 7.5 0 0 0-1.82-2.574 8.7 8.7 0 0 0-2.864-1.729 11.6 11.6 0 0 0-7.557 0 8.7 8.7 0 0 0-2.869 1.73c-.77.723-1.38 1.6-1.791 2.573a8.18 8.18 0 0 0 0 6.326c.419.975 1.04 1.85 1.82 2.569a8.6 8.6 0 0 0 2.869 1.733 11.6 11.6 0 0 0 7.557 0 8.6 8.6 0 0 0 2.863-1.733 7.5 7.5 0 0 0 1.792-2.57 8.18 8.18 0 0 0 0-6.33"/><path fill="#df6d3f" d="M91.74 30.146a4.35 4.35 0 0 0 1.617-.53 73 73 0 0 0 2.873-1.85l8.895-5.795c1.168-.792 1.168-.879.27-1.932-.092-.087-.183-.26-.27-.352a2.46 2.46 0 0 0-2.873-.879 13.4 13.4 0 0 0-5.21 2.728 23.5 23.5 0 0 0-5.211 6.254 5 5 0 0 0-.72 1.931c-.091.353.087.532.628.445m15.453-9.953c.27-.087.357-.352.449-.44 1.347-2.38 2.873-4.582 4.399-6.784 2.158-3.26 4.404-6.427 6.649-9.686.966-1.497 2.067-2.898 2.965-4.404 1.618-2.376 3.414-4.757 5.119-7.133 1.617-2.467 3.505-4.756 5.311-7.132.807-1.144 1.526-2.38 2.415-3.438a10.4 10.4 0 0 1 1.975-1.932c.541-.352.966-.352 1.26 0 .358.353.266.705 0 1.145q-.448.78-.99 1.497c-1.168 1.323-2.153 2.733-3.235 4.143l-1.077 1.318c-2.694 3.434-5.21 6.872-7.726 10.392-1.883 2.641-3.771 5.283-5.66 8.016-2.332 3.08-4.399 6.34-6.644 9.508-1.618 2.202-3.057 4.496-4.491 6.693l-6.76 10.57c-1.797 2.994-3.772 5.901-5.66 8.808a3.8 3.8 0 0 1-.806 1.145.61.61 0 0 1-.898.087c-.27-.174-.18-.527-.092-.792.54-.705 1.082-1.41 1.53-2.115 1.45-2.376 2.898-4.83 4.4-7.22a480 480 0 0 0 5.567-9.073c.287-.287.476-.657.541-1.058a113 113 0 0 0-3.322 2.381c-2.337 1.67-4.583 3.346-6.92 5.017q-1.159.787-2.414 1.41a4 4 0 0 1-1.347.44c-1.705.265-2.966-.792-2.874-2.463.093-.81.273-1.609.536-2.38a16.13 16.13 0 0 1 5.312-6.867 16.7 16.7 0 0 1 5.032-2.82 8.1 8.1 0 0 1 3.23-.353 3.6 3.6 0 0 1 2.965 1.589c.449.613.811 1.231 1.261 1.931M123.9 21.512c-.179-.174 0-.353.087-.614.362-1.144-.179-1.85-1.347-2.028a4.5 4.5 0 0 0-2.415.531 15.4 15.4 0 0 0-5.567 4.578c-.898 1.318-1.71 2.728-1.797 4.317 0 .174-.091.348-.091.527.091 1.323.54 1.762 1.888 1.762a5.5 5.5 0 0 0 2.414-.618c1.705-.792 3.322-1.763 4.221-3.52.091-.179.27-.353.27-.531.27-.527.092-.792-.536-.88h-1.449a2.1 2.1 0 0 1-.719-.178c-.536-.26-.628-.705-.092-1.058a2.77 2.77 0 0 1 3.148-.087c.383.302.861.458 1.348.44 4.491-.087 8.89-.087 13.294-.26 1.255 0 2.414-.093 3.684-.093.266 0 .715-.087.715.353.091.353-.449.353-.715.353a6.3 6.3 0 0 1-1.26.091l-8.77.261c-2.153.092-4.312.266-6.557.179a.886.886 0 0 0-.99.705 5.9 5.9 0 0 1-1.347 2.554 13.3 13.3 0 0 1-4.042 2.994c-1.449.613-3.052.966-4.67.44a3.22 3.22 0 0 1-2.337-2.29c-.628-2.288-.087-4.403 1.261-6.34a11.8 11.8 0 0 1 3.322-3.346c1.796-1.145 3.593-2.028 5.751-2.294a4.35 4.35 0 0 1 3.501.966 2.1 2.1 0 0 1 .675 1.54 2.1 2.1 0 0 1-.675 1.54c0 .088-.092 0-.179 0"/><path fill="#df6d3f" d="M157.675 20.9a11.4 11.4 0 0 0-3.414 1.318 44 44 0 0 0-10.686 7.75c-.72.705-1.082.884-1.449.618-.72-.53-.27-1.057-.092-1.583q1.17-2.581 2.608-5.023a41 41 0 0 0 2.603-4.756c.178-.266.449-.613.178-.966-.265-.265-.628.087-.966.174a24.5 24.5 0 0 0-4.939 2.728 70.5 70.5 0 0 0-14.733 12.42c-.29.262-.506.595-.628.966a.73.73 0 0 1-.811.348.67.67 0 0 1-.45-.792c.186-.663.426-1.31.72-1.932 1.449-2.641 3.057-5.196 4.67-7.837 1.26-2.028 2.515-4.051 3.954-5.988.536-.705 1.077-1.323 1.618-2.028.239-.281.549-.493.898-.613a1.19 1.19 0 0 1 1.169.352.898.898 0 0 1 .178 1.053 7.5 7.5 0 0 1-.898 1.41c-1.617 2.202-3.327 4.404-4.94 6.606a25 25 0 0 0-1.709 2.554 3.4 3.4 0 0 0 1.077-.878 79 79 0 0 1 12.217-9.426 12.2 12.2 0 0 1 3.593-1.671 2.77 2.77 0 0 1 2.066.174 2.206 2.206 0 0 1 1.261 2.641 6.24 6.24 0 0 1-1.169 2.468c-.898 1.23-1.888 2.554-2.786 3.863-.179.265-.358.618-.628.965a.61.61 0 0 0 .628-.265 47.6 47.6 0 0 1 8.354-5.635c.627-.266 1.26-.527 1.796-.706a2.9 2.9 0 0 1 1.169-.265c1.617-.087 2.516 1.058 2.245 2.554-.272.999-.695 1.95-1.255 2.82-.449.88-.899 1.763-1.348 2.555-.091.265-.178.526-.27.879-.271.966.092 1.497 1.169 1.497a5.8 5.8 0 0 0 2.414-.353c4.312-1.41 8.533-3.08 12.758-4.93q.372-.146.715-.353c.091 0 .27-.087.362.087.178.179 0 .353-.092.44-.455.29-.941.526-1.449.705a101 101 0 0 1-12.4 4.935 7.4 7.4 0 0 1-2.782.526 2.64 2.64 0 0 1-2.694-2.467 4.5 4.5 0 0 1 .357-2.202 15.6 15.6 0 0 1 1.347-3.347c.293-.41.45-.901.449-1.405"/></svg>
